assets/svg/solid/cloud-arrow-up.svg

<svg xmlns="http://www.w3.org/2000/svg" viewBox="0 0 640 512"><!--! Font Awesome Free 6.5.0 by @fontawesome - https://fontawesome.com License - https://fontawesome.com/license/free (Icons: CC BY 4.0, Fonts: SIL OFL 1.1, Code: MIT License) Copyright 2023 Fonticons, Inc. --><path d="M144 480C64.5 480 0 415.5 0 336c0-62.8 40.2-116.2 96.2-135.9c-.1-2.7-.2-5.4-.2-8.1c0-88.4 71.6-160 160-160c59.3 0 111 32.2 138.7 80.2C409.9 102 428.3 96 448 96c53 0 96 43 96 96c0 12.2-2.3 23.8-6.4 34.6C596 238.4 640 290.1 640 352c0 70.7-57.3 128-128 128H144zm79-217c-9.4 9.4-9.4 24.6 0 33.9s24.6 9.4 33.9 0l39-39V392c0 13.3 10.7 24 24 24s24-10.7 24-24V257.9l39 39c9.4 9.4 24.6 9.4 33.9 0s9.4-24.6 0-33.9l-80-80c-9.4-9.4-24.6-9.4-33.9 0l-80 80z"/></svg>

<svg xmlns="http://www.w3.org/2000/svg" viewBox="0 0 640 512"><!--! Font Awesome Free 6.1.2 by @fontawesome - https://fontawesome.com License - https://fontawesome.com/license/free (Icons: CC BY 4.0, Fonts: SIL OFL 1.1, Code: MIT License) Copyright 2022 Fonticons, Inc. --><path d="M144 480C64.47 480 0 415.5 0 336C0 273.2 40.17 219.8 96.2 200.1C96.07 197.4 96 194.7 96 192C96 103.6 167.6 32 256 32C315.3 32 367 64.25 394.7 112.2C409.9 101.1 428.3 96 448 96C501 96 544 138.1 544 192C544 204.2 541.7 215.8 537.6 226.6C596 238.4 640 290.1 640 352C640 422.7 582.7 480 512 480H144zM223 263C213.7 272.4 213.7 287.6 223 296.1C232.4 306.3 247.6 306.3 256.1 296.1L296 257.9V392C296 405.3 306.7 416 320 416C333.3 416 344 405.3 344 392V257.9L383 296.1C392.4 306.3 407.6 306.3 416.1 296.1C426.3 287.6 426.3 272.4 416.1 263L336.1 183C327.6 173.7 312.4 173.7 303 183L223 263z"/></svg>
